public/images/showcase/showcase1.svg

<svg width="519" height="609" viewBox="0 0 519 609" fill="none" xmlns="http://www.w3.org/2000/svg">
<path d="M213.734 526.042L207.975 531.776C203.625 536.108 197.736 538.54 191.596 538.54H57.6493C56.5809 538.54 55.7148 537.674 55.7148 536.606L55.7148 80.6101C55.7148 74.5898 58.0538 68.805 62.2381 64.4765L88.928 36.8666C93.179 32.469 98.9939 29.9269 105.109 29.7928L181.817 28.1106C189.135 27.9501 196.101 31.2512 200.61 37.0174L218.586 60.0007C222.985 65.6259 229.729 68.913 236.87 68.913H439.502C452.322 68.913 462.715 79.3058 462.715 92.1259V515.327C462.715 528.147 452.322 538.54 439.502 538.54H331.476C325.337 538.54 319.447 536.108 315.097 531.776L309.339 526.042C304.988 521.709 299.099 519.277 292.959 519.277H230.113C223.974 519.277 218.084 521.709 213.734 526.042Z" fill="#FFA32A"/>
<path d="M57.2624 538.54H57.6493M57.6493 538.54H191.596C197.736 538.54 203.625 536.108 207.975 531.776L213.734 526.042C218.084 521.709 223.974 519.277 230.113 519.277H292.959C299.099 519.277 304.988 521.709 309.339 526.042L315.097 531.776C319.447 536.108 325.337 538.54 331.476 538.54H439.502C452.322 538.54 462.715 528.147 462.715 515.327V92.1259C462.715 79.3058 452.322 68.913 439.502 68.913H236.87C229.729 68.913 222.985 65.6259 218.586 60.0007L200.61 37.0174C196.101 31.2512 189.135 27.9501 181.817 28.1106L105.109 29.7928C98.9939 29.9269 93.179 32.469 88.928 36.8666L62.2381 64.4765C58.0538 68.805 55.7148 74.5898 55.7148 80.6101L55.7148 536.606C55.7148 537.674 56.5809 538.54 57.6493 538.54Z" stroke="#FFCC89" stroke-width="4.64259" stroke-linejoin="bevel"/>
<rect x="30.1797" y="120.707" width="50.2947" height="191.894" rx="25.1473" fill="#FAC50A"/>
<rect x="30.1797" y="120.707" width="50.2947" height="191.894" rx="25.1473" stroke="#FFD647" stroke-width="6" stroke-linejoin="bevel"/>
<path d="M57.2101 272.212H60.8281V274.894H49.5781V270.034C49.5781 269.134 49.7101 268.414 49.9741 267.874C50.2261 267.322 50.6461 266.926 51.2341 266.686C51.8101 266.434 52.5841 266.308 53.5561 266.308C54.8281 266.308 55.7581 266.584 56.3461 267.136C56.9221 267.676 57.2101 268.552 57.2101 269.764V272.212ZM55.1941 272.212V270.106C55.1941 269.734 55.1401 269.482 55.0321 269.35C54.9241 269.206 54.7261 269.134 54.4381 269.134H52.5481C52.2601 269.134 52.0621 269.206 51.9541 269.35C51.8461 269.482 51.7921 269.734 51.7921 270.106V272.212H55.1941ZM55.5361 268.342L60.8281 265.822V268.738L56.5981 270.718L55.5361 268.342ZM56.2021 261.384H58.6141V256.776H60.8281V264.066H49.5781V256.758L51.7921 257.1V261.384H54.2041V257.442H56.2021V261.384ZM60.8281 255.847L49.5781 252.733V248.611L60.8281 245.497V248.179L52.1161 250.591V250.753L60.8281 253.165V255.847ZM58.6681 253.975H56.6701V247.351H58.6681V253.975ZM60.6301 236.736C60.7981 237.192 60.9181 237.672 60.9901 238.176C61.0621 238.68 61.0981 239.268 61.0981 239.94C61.0981 240.828 61.0021 241.566 60.8101 242.154C60.6181 242.73 60.3001 243.186 59.8561 243.522C59.4121 243.858 58.8121 244.098 58.0561 244.242C57.3001 244.386 56.3521 244.458 55.2121 244.458C54.0601 244.458 53.1061 244.386 52.3501 244.242C51.5821 244.086 50.9761 243.828 50.5321 243.468C50.0881 243.108 49.7761 242.622 49.5961 242.01C49.4041 241.398 49.3081 240.618 49.3081 239.67C49.3081 239.37 49.3261 239.04 49.3621 238.68C49.3981 238.32 49.4461 237.978 49.5061 237.654C49.5661 237.318 49.6381 237.054 49.7221 236.862L51.8821 237.204C51.8101 237.468 51.7501 237.762 51.7021 238.086C51.6541 238.398 51.6181 238.704 51.5941 239.004C51.5581 239.304 51.5401 239.55 51.5401 239.742C51.5401 240.414 51.6241 240.888 51.7921 241.164C51.9601 241.44 52.3141 241.578 52.8541 241.578H58.6321C58.6921 241.302 58.7401 241.014 58.7761 240.714C58.8121 240.402 58.8301 240.096 58.8301 239.796C58.8301 239.292 58.7941 238.794 58.7221 238.302C58.6381 237.81 58.5301 237.366 58.3981 236.97L60.6301 236.736ZM51.7921 230.724H60.8281V233.406H51.7921V236.16H49.5781V227.97H51.7921V230.724ZM49.5781 226.537V223.855H60.8281V226.537H49.5781ZM55.2121 221.712C54.0361 221.712 53.0701 221.64 52.3141 221.496C51.5461 221.34 50.9461 221.076 50.5141 220.704C50.0701 220.332 49.7581 219.828 49.5781 219.192C49.3981 218.544 49.3081 217.728 49.3081 216.744C49.3081 215.772 49.3981 214.962 49.5781 214.314C49.7581 213.666 50.0701 213.162 50.5141 212.802C50.9461 212.43 51.5461 212.166 52.3141 212.01C53.0701 211.854 54.0361 211.776 55.2121 211.776C56.3881 211.776 57.3541 211.854 58.1101 212.01C58.8661 212.166 59.4661 212.43 59.9101 212.802C60.3421 213.162 60.6481 213.666 60.8281 214.314C61.0081 214.962 61.0981 215.772 61.0981 216.744C61.0981 217.728 61.0081 218.544 60.8281 219.192C60.6481 219.828 60.3421 220.332 59.9101 220.704C59.4661 221.076 58.8661 221.34 58.1101 221.496C57.3541 221.64 56.3881 221.712 55.2121 221.712ZM58.8121 218.832V216.15C58.8121 215.586 58.7281 215.196 58.5601 214.98C58.3921 214.764 58.0981 214.656 57.6781 214.656H51.5941L51.5941 217.374C51.5941 217.926 51.6781 218.31 51.8461 218.526C52.0141 218.73 52.3081 218.832 52.7281 218.832H58.8121ZM60.8281 209.554H49.5781V206.908L55.0861 203.488C55.3741 203.32 55.6021 203.206 55.7701 203.146C55.9381 203.074 56.1121 203.038 56.2921 203.038V202.93H49.5781V200.248H60.8281V202.876L55.3201 206.296C55.0321 206.464 54.8041 206.584 54.6361 206.656C54.4681 206.716 54.2941 206.752 54.1141 206.764V206.872H60.8281V209.554ZM51.7921 189.204H60.8281V191.886H51.7921V194.64H49.5781V186.45H51.7921V189.204ZM49.5781 185.017V182.335H60.8281V185.017H49.5781ZM60.8281 180.066L49.5781 179.346V175.854L56.6881 173.892V173.766L49.5781 171.804V168.33L60.8281 167.61V170.274L53.6281 170.706V170.814L60.8281 172.776V174.882L53.6281 176.844V176.952L60.8281 177.402V180.066ZM56.2021 162.665H58.6141V158.057H60.8281V165.347H49.5781V158.039L51.7921 158.381V162.665H54.2041V158.723H56.2021V162.665Z" fill="white"/>
<path d="M109.682 58.3871C109.682 56.4671 109.812 54.8771 110.072 53.6171C110.352 52.3371 110.812 51.3271 111.452 50.5871C112.112 49.8471 112.992 49.3271 114.092 49.0271C115.212 48.7071 116.612 48.5471 118.292 48.5471C119.972 48.5471 121.362 48.7071 122.462 49.0271C123.562 49.3271 124.432 49.8471 125.072 50.5871C125.712 51.3071 126.172 52.3071 126.452 53.5871C126.732 54.8471 126.872 56.4471 126.872 58.3871C126.872 59.9271 126.782 61.2571 126.602 62.3771C126.442 63.4971 126.172 64.4371 125.792 65.1971C125.412 65.9371 124.892 66.5271 124.232 66.9671C123.572 67.4071 122.752 67.7171 121.772 67.8971C120.792 68.0971 119.632 68.1971 118.292 68.1971C116.932 68.1971 115.762 68.0971 114.782 67.8971C113.822 67.7171 113.012 67.4071 112.352 66.9671C111.692 66.5071 111.162 65.9071 110.762 65.1671C110.382 64.4071 110.102 63.4771 109.922 62.3771C109.762 61.2571 109.682 59.9271 109.682 58.3871ZM115.352 53.0471V62.1071C115.352 62.7471 115.482 63.1771 115.742 63.3971C116.022 63.5971 116.592 63.6971 117.452 63.6971H121.202V54.6371C121.202 53.9971 121.042 53.5771 120.722 53.3771C120.422 53.1571 119.812 53.0471 118.892 53.0471H115.352ZM129.575 58.3871C129.575 56.4671 129.705 54.8771 129.965 53.6171C130.245 52.3371 130.705 51.3271 131.345 50.5871C132.005 49.8471 132.885 49.3271 133.985 49.0271C135.105 48.7071 136.505 48.5471 138.185 48.5471C139.865 48.5471 141.255 48.7071 142.355 49.0271C143.455 49.3271 144.325 49.8471 144.965 50.5871C145.605 51.3071 146.065 52.3071 146.345 53.5871C146.625 54.8471 146.765 56.4471 146.765 58.3871C146.765 59.9271 146.675 61.2571 146.495 62.3771C146.335 63.4971 146.065 64.4371 145.685 65.1971C145.305 65.9371 144.785 66.5271 144.125 66.9671C143.465 67.4071 142.645 67.7171 141.665 67.8971C140.685 68.0971 139.525 68.1971 138.185 68.1971C136.825 68.1971 135.655 68.0971 134.675 67.8971C133.715 67.7171 132.905 67.4071 132.245 66.9671C131.585 66.5071 131.055 65.9071 130.655 65.1671C130.275 64.4071 129.995 63.4771 129.815 62.3771C129.655 61.2571 129.575 59.9271 129.575 58.3871ZM135.245 53.0471V62.1071C135.245 62.7471 135.375 63.1771 135.635 63.3971C135.915 63.5971 136.485 63.6971 137.345 63.6971H141.095V54.6371C141.095 53.9971 140.935 53.5771 140.615 53.3771C140.315 53.1571 139.705 53.0471 138.785 53.0471H135.245ZM148.927 67.7471V63.3971H153.847V53.7371L148.627 54.1871V49.4471L159.127 48.5471V63.3971H162.787V67.7471H148.927Z" fill="white"/>
<g filter="url(#filter0_f_150_19769)">
<rect x="154.754" y="154.753" width="208.916" height="298.967" rx="104.458" fill="#FEC600"/>
</g>
<defs>
<filter id="filter0_f_150_19769" x="0.00105286" y="7.62939e-05" width="518.424" height="608.472" filterUnits="userSpaceOnUse" color-interpolation-filters="sRGB">
<feFlood flood-opacity="0" result="BackgroundImageFix"/>
<feBlend mode="normal" in="SourceGraphic" in2="BackgroundImageFix" result="shape"/>
<feGaussianBlur stdDeviation="77.3764" result="effect1_foregroundBlur_150_19769"/>
</filter>
</defs>
</svg>

<svg xmlns="http://www.w3.org/2000/svg" width="519" height="609" fill="none" xmlns:v="https://vecta.io/nano"><path d="M213.734 526.042l-5.759 5.734a23.21 23.21 0 0 1-16.379 6.764H57.649c-1.068 0-1.934-.866-1.934-1.934V80.61c0-6.02 2.339-11.805 6.523-16.134l26.69-27.61c4.251-4.398 10.066-6.94 16.181-7.074l76.708-1.682a23.21 23.21 0 0 1 18.793 8.907l17.976 22.983a23.21 23.21 0 0 0 18.284 8.912h202.632c12.82 0 23.213 10.393 23.213 23.213v423.201c0 12.82-10.393 23.213-23.213 23.213H331.476a23.21 23.21 0 0 1-16.379-6.764l-5.758-5.734a23.21 23.21 0 0 0-16.38-6.765h-62.846a23.21 23.21 0 0 0-16.379 6.765z" fill="#ffa32a"/><path d="M57.262 538.54h.387m0 0h133.947a23.21 23.21 0 0 0 16.379-6.764l5.759-5.734a23.21 23.21 0 0 1 16.379-6.765h62.846a23.21 23.21 0 0 1 16.38 6.765l5.758 5.734a23.21 23.21 0 0 0 16.379 6.764h108.026c12.82 0 23.213-10.393 23.213-23.213V92.126c0-12.82-10.393-23.213-23.213-23.213H236.87a23.21 23.21 0 0 1-18.284-8.912L200.61 37.017a23.21 23.21 0 0 0-18.793-8.907l-76.708 1.682c-6.115.134-11.93 2.676-16.181 7.074l-26.69 27.61c-4.184 4.329-6.523 10.113-6.523 16.134v455.996c0 1.068.866 1.934 1.935 1.934z" stroke="#ffcc89" stroke-width="4.643" stroke-linejoin="bevel"/><rect x="30.18" y="120.707" width="50.295" height="191.894" rx="25.147" fill="#fac50a"/><rect x="30.18" y="120.707" width="50.295" height="191.894" rx="25.147" stroke="#ffd647" stroke-width="6" stroke-linejoin="bevel"/><path d="M57.21 272.212h3.618v2.682h-11.25v-4.86c0-.9.132-1.62.396-2.16a2.27 2.27 0 0 1 1.26-1.188c.576-.252 1.35-.378 2.322-.378 1.272 0 2.202.276 2.79.828.576.54.864 1.416.864 2.628v2.448zm-2.016 0v-2.106c0-.372-.054-.624-.162-.756-.108-.144-.306-.216-.594-.216h-1.89c-.288 0-.486.072-.594.216-.108.132-.162.384-.162.756v2.106h3.402zm.342-3.87l5.292-2.52v2.916l-4.23 1.98-1.062-2.376zm.666-6.958h2.412v-4.608h2.214v7.29h-11.25v-7.308l2.214.342v4.284h2.412v-3.942h1.998v3.942zm4.626-5.537l-11.25-3.114v-4.122l11.25-3.114v2.682l-8.712 2.412v.162l8.712 2.412v2.682zm-2.16-1.872H56.67v-6.624h1.998v6.624zm1.962-17.239a7.03 7.03 0 0 1 .36 1.44 12.63 12.63 0 0 1 .108 1.764c0 .888-.096 1.626-.288 2.214-.192.576-.51 1.032-.954 1.368s-1.044.576-1.8.72-1.704.216-2.844.216c-1.152 0-2.106-.072-2.862-.216-.768-.156-1.374-.414-1.818-.774s-.756-.846-.936-1.458c-.192-.612-.288-1.392-.288-2.34a10.01 10.01 0 0 1 .054-.99l.144-1.026c.06-.336.132-.6.216-.792l2.16.342c-.072.264-.132.558-.18.882l-.108.918-.054.738c0 .672.084 1.146.252 1.422s.522.414 1.062.414h5.778l.144-.864c.036-.312.054-.618.054-.918 0-.504-.036-1.002-.108-1.494a9.03 9.03 0 0 0-.324-1.332l2.232-.234zm-8.838-6.012h9.036v2.682h-9.036v2.754h-2.214v-8.19h2.214v2.754zm-2.214-4.187v-2.682h11.25v2.682h-11.25zm5.634-4.825c-1.176 0-2.142-.072-2.898-.216-.768-.156-1.368-.42-1.8-.792-.444-.372-.756-.876-.936-1.512-.18-.648-.27-1.464-.27-2.448 0-.972.09-1.782.27-2.43s.492-1.152.936-1.512c.432-.372 1.032-.636 1.8-.792.756-.156 1.722-.234 2.898-.234s2.142.078 2.898.234 1.356.42 1.8.792c.432.36.738.864.918 1.512s.27 1.458.27 2.43c0 .984-.09 1.8-.27 2.448-.18.636-.486 1.14-.918 1.512-.444.372-1.044.636-1.8.792-.756.144-1.722.216-2.898.216zm3.6-2.88v-2.682c0-.564-.084-.954-.252-1.17s-.462-.324-.882-.324h-6.084v2.718c0 .552.084.936.252 1.152.168.204.462.306.882.306h6.084zm2.016-9.278h-11.25v-2.646l5.508-3.42c.288-.168.516-.282.684-.342a1.31 1.31 0 0 1 .522-.108v-.108h-6.714v-2.682h11.25v2.628l-5.508 3.42-.684.36c-.168.06-.342.096-.522.108v.108h6.714v2.682zm-9.036-20.35h9.036v2.682h-9.036v2.754h-2.214v-8.19h2.214v2.754zm-2.214-4.187v-2.682h11.25v2.682h-11.25zm11.25-4.951l-11.25-.72v-3.492l7.11-1.962v-.126l-7.11-1.962v-3.474l11.25-.72v2.664l-7.2.432v.108l7.2 1.962v2.106l-7.2 1.962v.108l7.2.45v2.664zm-4.626-17.401h2.412v-4.608h2.214v7.29h-11.25v-7.308l2.214.342v4.284h2.412v-3.942h1.998v3.942zm53.48-104.278c0-1.92.13-3.51.39-4.77.28-1.28.74-2.29 1.38-3.03.66-.74 1.54-1.26 2.64-1.56 1.12-.32 2.52-.48 4.2-.48s3.07.16 4.17.48c1.1.3 1.97.82 2.61 1.56.64.72 1.1 1.72 1.38 3 .28 1.26.42 2.86.42 4.8 0 1.54-.09 2.87-.27 3.99-.16 1.12-.43 2.06-.81 2.82-.38.74-.9 1.33-1.56 1.77s-1.48.75-2.46.93c-.98.2-2.14.3-3.48.3-1.36 0-2.53-.1-3.51-.3-.96-.18-1.77-.49-2.43-.93-.66-.46-1.19-1.06-1.59-1.8-.38-.76-.66-1.69-.84-2.79-.16-1.12-.24-2.45-.24-3.99zm5.67-5.34v9.06c0 .64.13 1.07.39 1.29.28.2.85.3 1.71.3h3.75v-9.06c0-.64-.16-1.06-.48-1.26-.3-.22-.91-.33-1.83-.33h-3.54zm14.223 5.34c0-1.92.13-3.51.39-4.77.28-1.28.74-2.29 1.38-3.03.66-.74 1.54-1.26 2.64-1.56 1.12-.32 2.52-.48 4.2-.48s3.07.16 4.17.48c1.1.3 1.97.82 2.61 1.56.64.72 1.1 1.72 1.38 3 .28 1.26.42 2.86.42 4.8 0 1.54-.09 2.87-.27 3.99-.16 1.12-.43 2.06-.81 2.82-.38.74-.9 1.33-1.56 1.77s-1.48.75-2.46.93c-.98.2-2.14.3-3.48.3-1.36 0-2.53-.1-3.51-.3-.96-.18-1.77-.49-2.43-.93-.66-.46-1.19-1.06-1.59-1.8-.38-.76-.66-1.69-.84-2.79-.16-1.12-.24-2.45-.24-3.99zm5.67-5.34v9.06c0 .64.13 1.07.39 1.29.28.2.85.3 1.71.3h3.75v-9.06c0-.64-.16-1.06-.48-1.26-.3-.22-.91-.33-1.83-.33h-3.54zm13.682 14.7v-4.35h4.92v-9.66l-5.22.45v-4.74l10.5-.9v14.85h3.66v4.35h-13.86z" fill="#fff"/><g filter="url(#A)"><rect x="154.754" y="154.753" width="208.916" height="298.967" rx="104.458" fill="#fec600"/></g><defs><filter id="A" x=".001" y="0" width="518.424" height="608.472" filterUnits="userSpaceOnUse" color-interpolation-filters="sRGB"><feFlood flood-opacity="0"/><feBlend in="SourceGraphic"/><feGaussianBlur stdDeviation="77.376"/></filter></defs></svg>
